X:646
T:Father O'Flynn
T:The top of Cork Road
T:The rollicking Irishman
R:Jig
O:Ireland
B:Roche 1 n97
B:Kerr's Fourth
B:Kerr's First p38
B:O'Neill's 1031
S:1 Kerr's Fourth
S:2 O'Neill's 1031
Z:Transcription, chords:Mike Long
M:6/8
L:1/8
K:D
P:Arr. Kerr's
A|\
"D"dAF DFA|"D"ded "A"cBA|"D"dcd "G"efg|"D"fdf "A"ecA|\
"D"dAF DFA|"D"ded "A"cBA|"D"dcd "A"efg|"D"fdd d2:|
|:e|\
"D"f2f fga|"A"ecA ABc|"D"dcd "G"Bed|"A"cAA A2A|\
"G"BGB Bcd|"D"AFD DFA|"D"dcd "A"efg|"D"fdd d2:|
P:Arr. O'Neill's
(f/e/)|\
"D"dAF DFA|"G"Bed "A"cBA|"D"dcd "G"efg|"A"aed cBA|\
"D"dAF DFA|"G"Bed "A"cBA|"D"dcd "A"efg|"D"fdd d2:|
|:g|\
"D"fdf fga|"A"ecd efg|"D"dcd "G"fed|"A"cAA A2c|\
"G"BGB Bcd|"D"AFA DFA|"D"dcd "A"efg|"D"fdd d2:|
